48x48/apps/appimagekit-rclone-browser.svg

<svg xmlns="http://www.w3.org/2000/svg" width="48" height="48" version="1">
 <path style="opacity:0.2" d="M 24.347656,5.0038329 C 19.737952,4.8843692 15.20987,7.2220225 12.742188,11.488208 c -1.344142,2.323783 -1.884811,4.891729 -1.710938,7.38086 1.473889,-0.517547 3.058104,-0.802592 4.707031,-0.802735 l 2.269531,-0.002 A 6.0002202,5.9890368 0 0 1 18.804688,14.984302 6.0002202,5.9890368 0 0 1 27,12.792896 a 6.0002202,5.9890368 0 0 1 2.457031,7.662109 6.0002202,5.9890368 0 0 1 -0.259765,0.517578 6.0002202,5.9890368 0 0 1 -0.02148,0.0332 l -2.599609,4.5 1.826172,3.494141 4.236328,-0.002 2.617187,-4.535156 C 38.845216,18.257457 36.714468,10.322523 30.498047,6.7401611 28.55525,5.6205771 26.442976,5.0581346 24.347656,5.0038329 Z m -3.105468,13.9960941 -5.244141,0.0039 C 8.8195972,19.003833 3,24.82404 3,32.00188 c 0,7.178447 5.8195972,12.998047 12.998047,12.998047 2.688185,0 5.18515,-0.817427 7.257812,-2.214844 -1.185946,-1.017131 -2.224272,-2.24594 -3.048828,-3.673828 L 19.070312,37.146411 A 6,6 0 0 1 16,37.999927 a 6,6 0 0 1 -6,-6 6,6 0 0 1 5.419922,-5.964844 A 6,6 0 0 1 16,25.999927 a 6,6 0 0 1 0.03906,0.002 l 5.203126,-0.0039 2.11914,-3.330078 z m 16.486328,1.328125 c -0.288736,1.535199 -0.833864,3.048479 -1.658204,4.476563 l -1.132812,1.96875 a 5.9890368,6.0002202 30 0 1 2.269531,2.228515 5.9890368,6.0002202 30 0 1 -2.201172,8.195313 5.9890368,6.0002202 30 0 1 -7.863281,-1.705078 5.9890368,6.0002202 30 0 1 -0.318359,-0.484376 5.9890368,6.0002202 30 0 1 -0.01758,-0.03516 l -2.597657,-4.5 -3.939453,-0.166015 -2.117187,3.667968 2.61914,4.53711 c 3.579321,6.211155 11.515936,8.332632 17.726563,4.740234 6.211158,-3.592703 8.344946,-11.540798 4.765625,-17.751953 -1.340385,-2.325951 -3.292569,-4.077888 -5.535156,-5.171875 z"/>
 <path style="fill:#aee5ff" d="m 18.153,32.975352 2.618211,4.535542 c 3.579321,6.211155 11.517025,8.33364 17.727652,4.741242 6.211158,-3.592703 8.344797,-11.540728 4.765476,-17.751883 -1.340385,-2.325951 -3.292701,-4.077341 -5.535288,-5.171328 -0.288736,1.535199 -0.834233,3.048609 -1.658572,4.476693 l -1.133292,1.966918 a 5.9890368,6.0002202 30 0 1 2.269426,2.229416 5.9890368,6.0002202 30 0 1 -2.199778,8.194408 5.9890368,6.0002202 30 0 1 -7.863565,-1.704278 5.9890368,6.0002202 30 0 1 -0.319659,-0.484317 5.9890368,6.0002202 30 0 1 -0.01775,-0.0348 l -2.597806,-4.500024 -3.937996,-0.166935 z"/>
 <path style="fill:#64cefe" d="m 32.637755,27.998754 2.618789,-4.535208 C 38.845901,17.258185 36.715175,9.3226896 30.498754,5.7403273 24.281803,2.1576585 16.331792,4.2838854 12.742435,10.489246 c -1.344141,2.323783 -1.884731,4.890233 -1.710858,7.379364 1.473889,-0.517547 3.057289,-0.801838 4.706216,-0.801981 l 2.270047,-0.002 a 6.0002202,5.9890368 0 0 1 0.796018,-3.080088 6.0002202,5.9890368 0 0 1 8.196454,-2.19214 6.0002202,5.9890368 0 0 1 2.455835,7.662186 6.0002202,5.9890368 0 0 1 -0.259602,0.518991 6.0002202,5.9890368 0 0 1 -0.02126,0.03277 L 26.57705,24.506128 28.401479,28 Z"/>
 <path style="fill:#2279ca" d="M 21.242188 18 L 15.998047 18.003906 C 8.8195973 18.003906 3 23.824113 3 31.001953 C 3 38.1804 8.8195973 44 15.998047 44 C 18.686232 44 21.183197 43.182573 23.255859 41.785156 C 22.069913 40.768025 21.031587 39.539216 20.207031 38.111328 L 19.070312 36.146484 A 6 6 0 0 1 16 37 A 6 6 0 0 1 10 31 A 6 6 0 0 1 15.419922 25.035156 A 6 6 0 0 1 16 25 A 6 6 0 0 1 16.039062 25.001953 L 21.242188 24.998047 L 23.361328 21.667969 L 21.242188 18 z"/>
 <path style="fill:#f4f4f7;opacity:0.2" d="M 24.347656 4.0039062 C 19.737952 3.8844425 15.20987 6.222096 12.742188 10.488281 C 11.468756 12.689818 10.924302 15.109555 11.017578 17.474609 C 11.094689 15.43358 11.647799 13.380286 12.742188 11.488281 C 16.331544 5.2829208 24.281096 3.1575656 30.498047 6.7402344 C 34.53508 9.0666722 36.835308 13.230396 36.978516 17.5625 C 37.186704 12.879724 34.845549 8.245587 30.498047 5.7402344 C 28.55525 4.6206504 26.442976 4.058208 24.347656 4.0039062 z M 29.966797 17.482422 A 6.0002202 5.9890368 0 0 1 29.457031 19.455078 A 6.0002202 5.9890368 0 0 1 29.197266 19.972656 A 6.0002202 5.9890368 0 0 1 29.175781 20.005859 L 26.576172 24.505859 L 26.849609 25.03125 L 29.175781 21.005859 A 6.0002202 5.9890368 0 0 0 29.197266 20.972656 A 6.0002202 5.9890368 0 0 0 29.457031 20.455078 A 6.0002202 5.9890368 0 0 0 29.966797 17.482422 z M 37.728516 19.328125 C 37.43978 20.863324 36.894652 22.376604 36.070312 23.804688 L 34.9375 25.773438 A 5.9890368 6.0002202 30 0 1 35.361328 26.037109 L 36.070312 24.804688 C 36.894652 23.376604 37.43978 21.863324 37.728516 20.328125 C 39.971103 21.422112 41.923287 23.174049 43.263672 25.5 C 44.339833 27.36745 44.890772 29.392317 44.978516 31.408203 C 45.057321 29.066599 44.518318 26.677173 43.263672 24.5 C 41.923287 22.174049 39.971103 20.422112 37.728516 19.328125 z M 20.269531 29.306641 L 18.152344 32.974609 L 18.441406 33.474609 L 20.269531 30.306641 L 24.208984 30.472656 L 26.806641 34.972656 A 5.9890368 6.0002202 30 0 0 26.824219 35.007812 A 5.9890368 6.0002202 30 0 0 27.142578 35.492188 A 5.9890368 6.0002202 30 0 0 35.005859 37.197266 A 5.9890368 6.0002202 30 0 0 37.980469 31.519531 A 5.9890368 6.0002202 30 0 1 35.005859 36.197266 A 5.9890368 6.0002202 30 0 1 27.142578 34.492188 A 5.9890368 6.0002202 30 0 1 26.824219 34.007812 A 5.9890368 6.0002202 30 0 1 26.806641 33.972656 L 24.208984 29.472656 L 20.269531 29.306641 z"/>
 <path style="fill:#f4f4f7;opacity:0.1" d="M 21.242188 18 L 15.998047 18.003906 C 8.8195972 18.003906 3 23.824113 3 31.001953 C 3 31.170864 3.0190044 31.334605 3.0253906 31.501953 C 3.2904087 24.55781 8.9885085 19.003912 15.998047 19.003906 L 21.242188 19 L 23.058594 22.144531 L 23.361328 21.667969 L 21.242188 18 z M 10.025391 31.507812 A 6 6 0 0 0 10 32 A 6 6 0 0 0 16 38 A 6 6 0 0 0 19.070312 37.146484 L 20.207031 39.111328 C 20.877712 40.27275 21.69534 41.294324 22.613281 42.185547 C 22.830637 42.056692 23.04689 41.926046 23.255859 41.785156 C 22.069913 40.768025 21.031587 39.539216 20.207031 38.111328 L 19.070312 36.146484 A 6 6 0 0 1 16 37 A 6 6 0 0 1 10.025391 31.507812 z"/>
</svg>

<svg xmlns="http://www.w3.org/2000/svg" width="48" height="48" version="1"><path style="opacity:.2" d="M24.348 5.004c-4.61-.12-9.138 2.218-11.606 6.484a12.901 12.901 0 0 0-1.71 7.381 14.187 14.187 0 0 1 4.706-.803l2.27-.002a6 5.989 0 0 1 .797-3.08A6 5.989 0 0 1 27 12.793a6 5.989 0 0 1 2.457 7.662 6 5.989 0 0 1-.26.518 6 5.989 0 0 1-.021.033l-2.6 4.5L28.402 29l4.237-.002 2.617-4.535c3.59-6.206 1.458-14.14-4.758-17.723a12.96 12.96 0 0 0-6.15-1.736zM21.242 19l-5.244.004C8.82 19.004 3 24.824 3 32.002 3 39.18 8.82 45 15.998 45a12.94 12.94 0 0 0 7.258-2.215 14.157 14.157 0 0 1-3.049-3.674l-1.137-1.965A6 6 0 0 1 16 38a6 6 0 0 1-6-6 6 6 0 0 1 5.42-5.965A6 6 0 0 1 16 26a6 6 0 0 1 .04.002l5.202-.004 2.12-3.33zm16.487 1.328a14.18 14.18 0 0 1-1.659 4.477l-1.132 1.968a5.989 6 30 0 1 2.269 2.229 5.989 6 30 0 1-2.201 8.195 5.989 6 30 0 1-7.863-1.705 5.989 6 30 0 1-.319-.484 5.989 6 30 0 1-.017-.035l-2.598-4.5-3.94-.166-2.117 3.668 2.62 4.537c3.579 6.21 11.515 8.332 17.726 4.74 6.211-3.593 8.345-11.54 4.766-17.752a12.897 12.897 0 0 0-5.535-5.172z"/><path style="fill:#aee5ff" d="m18.153 32.975 2.618 4.536c3.58 6.211 11.517 8.334 17.728 4.741 6.211-3.593 8.345-11.54 4.765-17.752a12.896 12.896 0 0 0-5.535-5.171 14.182 14.182 0 0 1-1.659 4.477l-1.133 1.967a5.989 6 30 0 1 2.27 2.229 5.989 6 30 0 1-2.2 8.194 5.989 6 30 0 1-7.864-1.704 5.989 6 30 0 1-.32-.484 5.989 6 30 0 1-.017-.035l-2.598-4.5-3.938-.167z"/><path style="fill:#64cefe" d="m32.638 27.999 2.619-4.535c3.589-6.206 1.458-14.141-4.758-17.724-6.217-3.582-14.167-1.456-17.757 4.75a12.896 12.896 0 0 0-1.71 7.379 14.182 14.182 0 0 1 4.706-.802l2.27-.002a6 5.989 0 0 1 .796-3.08A6 5.989 0 0 1 27 11.792a6 5.989 0 0 1 2.456 7.663 6 5.989 0 0 1-.26.519 6 5.989 0 0 1-.02.032l-2.599 4.5L28.401 28z"/><path style="fill:#2279ca" d="m21.242 18-5.244.004C8.82 18.004 3 23.824 3 31.002 3 38.18 8.82 44 15.998 44a12.94 12.94 0 0 0 7.258-2.215 14.157 14.157 0 0 1-3.049-3.674l-1.137-1.965A6 6 0 0 1 16 37a6 6 0 0 1-6-6 6 6 0 0 1 5.42-5.965A6 6 0 0 1 16 25a6 6 0 0 1 .04.002l5.202-.004 2.12-3.33L21.241 18z"/><path style="fill:#f4f4f7;opacity:.2" d="M24.348 4.004c-4.61-.12-9.138 2.218-11.606 6.484a12.888 12.888 0 0 0-1.724 6.987c.077-2.041.63-4.095 1.724-5.987 3.59-6.205 11.54-8.33 17.756-4.748 4.037 2.327 6.337 6.49 6.48 10.822.209-4.682-2.132-9.316-6.48-11.822a12.96 12.96 0 0 0-6.15-1.736zm5.619 13.478a6 5.989 0 0 1-.51 1.973 6 5.989 0 0 1-.26.518 6 5.989 0 0 1-.021.033l-2.6 4.5.274.525 2.326-4.025a6 5.989 0 0 0 .021-.033 6 5.989 0 0 0 .26-.518 6 5.989 0 0 0 .51-2.973zm7.762 1.846a14.18 14.18 0 0 1-1.659 4.477l-1.133 1.968a5.989 6 30 0 1 .424.264l.71-1.232a14.18 14.18 0 0 0 1.658-4.477 12.897 12.897 0 0 1 5.535 5.172 12.918 12.918 0 0 1 1.715 5.908 12.908 12.908 0 0 0-1.715-6.908 12.897 12.897 0 0 0-5.535-5.172zm-17.46 9.979-2.117 3.668.29.5 1.828-3.168 3.939.166 2.598 4.5a5.989 6 30 0 0 .017.035 5.989 6 30 0 0 .319.484 5.989 6 30 0 0 7.863 1.705 5.989 6 30 0 0 2.974-5.677 5.989 6 30 0 1-2.974 4.677 5.989 6 30 0 1-7.863-1.705 5.989 6 30 0 1-.319-.484 5.989 6 30 0 1-.017-.035l-2.598-4.5-3.94-.166z"/><path style="fill:#f4f4f7;opacity:.1" d="m21.242 18-5.244.004C8.82 18.004 3 23.824 3 31.002c0 .169.019.333.025.5.265-6.944 5.964-12.498 12.973-12.498L21.242 19l1.817 3.145.302-.477L21.242 18zM10.025 31.508A6 6 0 0 0 10 32a6 6 0 0 0 6 6 6 6 0 0 0 3.07-.854l1.137 1.965a14.129 14.129 0 0 0 2.406 3.075c.218-.13.434-.26.643-.4a14.157 14.157 0 0 1-3.049-3.675l-1.137-1.965A6 6 0 0 1 16 37a6 6 0 0 1-5.975-5.492z"/></svg>
